X:121
T: Regina (2-23) S. 71
N: P0896
O: Lothringen
S: PINCK, Louis: Verklingende Weisen, Bd 2, Metz 1928]
R: geistliche, religiöse Lieder]
M: 4/4
L: 1/8
K: A
A2 | A2A2ABA=G | F3ED2
A2 | BBBcd2BG | A2z4
A2 | A2A2ABA=G | F2=G2A2
A2 | Bdc2BAG2 | A2z4

